X:1
T:Plumas, 98.98.88.98
T:Plumas, 98.98.88.98
T:Peter Philip Bilhorn, 1894
T:Public Domain Courtesy of the Cyber Hymnal™
C:Peter Philip Bilhorn, 1894
Z:Public Domain
Z:Courtesy of the Cyber Hymnal™
%%score ( 1 2 ) ( 3 4 )
L:1/8
Q:1/4=90
M:6/8
K:F
V:1 treble 
V:2 treble 
V:3 bass 
V:4 bass 
V:1
 C | [CA]>[CA][CA] [DB][DF][_DG] | [CA]3 [CF]2 [FA] | [Fc]>[Fc][Fc] [DB][DF][_DG] | %4
 [CA]3- [CA]2 [FA] | [EG]>[EG][EG] [EB][FA][EG] | [FA]3 [Fc]2 [Fc] | [F=B]>[FB][FB] [FB][FA][FB] | %8
 [Ec]3- [Ec]2 [Fc] | [Fd]2 [Fd] [Fd]2 [Fd]/[Fd]/ | [Fc]3 [FA]2 [EG] | [DF]>[DF][DF] [FA][EG][DF] | %12
 [EG]3- [EG]2 [GB] | [FA]>[FA][FA] [EB][EB][GB] | [Fc]3 !fermata![Fd]2 !fermata![Fd] | %15
 [Fc]>[FB][FA] [EG]<[FA][CG] | [CF]3- [CF]2 |] %17
V:2
 C | x6 | x6 | x6 | x6 | x6 | x6 | x6 | x6 | x6 | x6 | x6 | x6 | x6 | x6 | x6 | x5 |] %17
V:3
 [F,A,] | F,>F,F, F,F,F, | F,3 [F,A,]2 [F,C] | [F,A,]>[F,A,][F,A,] F,F,F, | F,3- F,2 [F,C] | %5
 [C,C]>[C,C][C,C] [C,C][C,C][C,C] | [F,C]3 [F,A,]2 [F,A,] | G,>[G,D][G,D] [G,D][G,D][G,D] | %8
 [C,C]3- [C,C]2 [F,A,] | [B,,B,]2 [B,,B,] [B,,B,]2 [B,,B,]/[B,,B,]/ | [F,A,]3 [F,C]2 [C,B,] | %11
 [D,A,]>[D,A,][D,A,] [G,,=B,][G,,B,][G,,B,] | [C,C]3- [C,C]2 [E,C] | %13
 [F,C]>[F,C][F,C] [G,C][G,C][G,C] | [A,C]3 !fermata!B,2 !fermata![B,,B,] | %15
 [C,A,]>[C,D][C,C] [C,C]<[C,C][C,B,] | [F,,F,A,]2- [F,,F,A,]2 x |] %17
V:4
 x | F,>F,F, F,F,F, | F,3 x3 | x3 F,F,F, | F,3- F,2 x | x6 | x6 | G,3/2 x9/2 | x6 | x6 | x6 | x6 | %12
 x6 | x6 | x3 B,2 x | x6 | x5 |] %17

